X:155
T:Sonata K.380 in E Major
C:Scarlatti, D.
M:3/8
L:1/16
Q:3/8=108
K:E
|:B4|e8|e4 f#gf#e|d#4 ef#ga|b4 B4|
e4 d#cBA|G#4 AB cde|f#4 e2d2|B8:|

